X: 16
T: Petronella
R: Reel
M: 4/4
L: 1/8
K: Dmaj
dA|:"D"F2 AF "A7"E2 AF|"D"D2D2 D2 FA|d2 cd "Em"e2d2|"A7"cdec A2 dA |"D"F2 AF "A7"E2 AF|"D"D2D2 D2 FA|
"G"d2 cd "A7"e2c2|"D"d6 :||:dA|"D"F2 fd A2 af|"G"g2 ga gfed|
"A7"A2 ec A2 ge|"D"f2-fg fedA |F2 fd A2 af|"G"g2 ga gfed|"A7"cdec Agec|"D"d6 :|

